assets/svg/app/info.svg

<svg width="12" height="12" viewBox="0 0 12 12" fill="none" xmlns="http://www.w3.org/2000/svg">
<path d="M12 6C12 9.31371 9.31371 12 6 12C2.68629 12 0 9.31371 0 6C0 2.68629 2.68629 0 6 0C9.31371 0 12 2.68629 12 6Z" fill="#1A1A2E"/>
<path d="M6.44879 4.1065V3.16368H5.47035V4.1065H6.44879ZM7.83154 8.83632V8.26277H6.34367V4.86076H4.33019V5.42645H5.64825V8.26277H4.16846V8.83632H7.83154Z" fill="white"/>
<path fill-rule="evenodd" clip-rule="evenodd" d="M5.30189 3H6.61725V4.27019H5.30189V3ZM5.63881 3.32737V3.94282H6.28032V3.32737H5.63881ZM4.16173 4.69708H6.51213V8.09908H8V9H4V8.09908H5.47978V5.59014H4.16173V4.69708ZM4.49865 5.02444V5.26277H5.81671V8.42645H4.33693V8.67263H7.66307V8.42645H6.1752V5.02444H4.49865Z" fill="white"/>
</svg>

<svg width="12" height="12" fill="none" xmlns="http://www.w3.org/2000/svg">
    <path d="M12 6A6 6 0 1 1 0 6a6 6 0 0 1 12 0Z" fill="#1A1A2E"/>
    <path d="M6.449 4.106v-.942H5.47v.942h.979Zm1.383 4.73v-.573H6.344V4.86H4.33v.565h1.318v2.837h-1.48v.573h3.664Z" fill="#fff"/>
    <path fill-rule="evenodd" clip-rule="evenodd" d="M5.302 3h1.315v1.27H5.302V3Zm.337.327v.616h.641v-.616h-.64Zm-1.477 1.37h2.35V8.1H8V9H4v-.9h1.48V5.59H4.162v-.893Zm.337.327v.239h1.318v3.163h-1.48v.247h3.326v-.247H6.175V5.024H4.5Z" fill="#fff"/>
</svg>
